X: 25484
T: Marco's
R: reel
M: 4/4
K: Dmajor
|:F2FG FEDF|ADFD AGFA|dFAd FAdB|c~B3 cB^AB|
~E3F GFGA|c~B3 cdcB|~A2cB AGFE|1 DFBF A2AG:|2 FDCE D2ag||
|:f2fg fedf|edce dAFA|dFAd FAdB|c~B3 cB^AB|
[1 g2ga gfeg|fedf edcg|caBg AfGe|FdEc DBA2:|
[2 ~E3F GFGA|c~B3 cdcB|~A2cB AGFE|FDCE D4||

